X:150
T:Scallowa lasses
R:Reel
O:Shetland
M:4/4
K:ADor
Aaaf efed | cdef gagd | eaaf efed \
|1 cABG A2BG :|2 cABG A2A2 ||*
|:BE (3EEE c2cA | dedB gfed | \
eaag efed | cABG A2A2 :|**
